assets/svg/1F4C5.svg

<svg xmlns="http://www.w3.org/2000/svg" viewBox="0 0 64 64" enable-background="new 0 0 64 64"><path fill="#25333a" d="m63.67 54.21c0 4.74-3.67 8.58-8.201 8.58h-46.932c-4.528 0-8.202-3.84-8.202-8.58v-40.795c0-4.733 3.674-8.581 8.202-8.581h46.932c4.531 0 8.201 3.848 8.201 8.581v40.795"/><path fill="#fff" d="m57.718 51.55c0 3.427-3.01 6.203-6.722 6.203h-38.454c-3.714 0-6.726-2.776-6.726-6.203v-29.477c0-3.421 3.01-6.201 6.726-6.201h38.455c3.714 0 6.722 2.78 6.722 6.201v29.477"/><path fill="#d6d7d6" d="m19.11 51.55v-29.477c0-3.421 3.01-6.201 6.723-6.201h-13.286c-3.714 0-6.726 2.78-6.726 6.201v29.477c0 3.427 3.01 6.203 6.726 6.203h13.287c-3.713 0-6.724-2.777-6.724-6.203"/><path fill="#be1e2d" d="m57.718 24.613c0 1.416-3.01 2.567-6.722 2.567h-38.454c-3.714 0-6.726-1.151-6.726-2.567v-12.216c0-1.419 3.01-2.567 6.726-2.567h38.455c3.714 0 6.722 1.148 6.722 2.567v12.216"/><path fill="#25333a" d="m30.32 52.5v-15.65c-2.857 2.235-4.779 3.354-5.768 3.354-.473 0-.892-.193-1.259-.576-.363-.384-.545-.827-.545-1.334 0-.584.178-1.014.538-1.291.359-.271.995-.626 1.906-1.067 1.361-.649 2.448-1.338 3.262-2.058.816-.724 1.537-1.535 2.167-2.425.631-.896 1.038-1.45 1.23-1.655.189-.208.552-.306 1.078-.306.6 0 1.076.233 1.438.7.356.472.539 1.118.539 1.945v19.691c0 2.304-.771 3.461-2.312 3.461-.686 0-1.234-.241-1.651-.705-.418-.473-.623-1.169-.623-2.084"/><g fill="#d0d2d3"><path d="m22.516 12.32c0 2.158-1.717 3.902-3.826 3.902l0 0c-2.115 0-3.826-1.744-3.826-3.902v-7.803c0-2.157 1.711-3.905 3.826-3.905l0 0c2.109 0 3.826 1.748 3.826 3.905v7.803"/><path d="m48.54 12.32c0 2.158-1.712 3.902-3.827 3.902l0 0c-2.11 0-3.825-1.744-3.825-3.902v-7.803c0-2.157 1.715-3.905 3.825-3.905l0 0c2.115 0 3.827 1.748 3.827 3.905v7.803"/></g></svg>

<?xml version="1.0" encoding="utf-8"?>
<!-- Generator: Adobe Illustrator 16.0.0, SVG Export Plug-In . SVG Version: 6.00 Build 0)  -->
<!DOCTYPE svg PUBLIC "-//W3C//DTD SVG 1.1//EN" "http://www.w3.org/Graphics/SVG/1.1/DTD/svg11.dtd">
<svg version="1.1"
	 id="Layer_1" inkscape:version="0.48.5 r10040" sodipodi:docname="1F4C5.svg" inkscape:export-filename="D:\TESTINGEMOJI\SVGTEST\1F4C5.png" inkscape:export-xdpi="90" inkscape:export-ydpi="90" xmlns:svg="http://www.w3.org/2000/svg" xmlns:sodipodi="http://sodipodi.sourceforge.net/DTD/sodipodi-0.dtd" xmlns:cc="http://creativecommons.org/ns#" xmlns:dc="http://purl.org/dc/elements/1.1/" xmlns:inkscape="http://www.inkscape.org/namespaces/inkscape" xmlns:rdf="http://www.w3.org/1999/02/22-rdf-syntax-ns#"
	 xmlns="http://www.w3.org/2000/svg" xmlns:xlink="http://www.w3.org/1999/xlink" x="0px" y="0px" width="64px" height="64px"
	 viewBox="0 0 64 64" enable-background="new 0 0 64 64" xml:space="preserve">
<g>
	<path fill="#25333A" d="M63.667,54.21c0,4.74-3.67,8.58-8.201,8.58H8.534c-4.528,0-8.202-3.84-8.202-8.58V13.415
		c0-4.733,3.674-8.581,8.202-8.581h46.932c4.531,0,8.201,3.848,8.201,8.581V54.21z"/>
	<path fill="#FFFFFF" d="M57.718,51.553c0,3.427-3.008,6.203-6.722,6.203H12.542c-3.714,0-6.726-2.776-6.726-6.203V22.076
		c0-3.421,3.012-6.201,6.726-6.201h38.455c3.714,0,6.722,2.78,6.722,6.201V51.553z"/>
	<path fill="#D6D7D6" d="M19.105,51.553V22.076c0-3.421,3.011-6.201,6.723-6.201H12.542c-3.714,0-6.726,2.78-6.726,6.201v29.477
		c0,3.427,3.012,6.203,6.726,6.203h13.287C22.116,57.756,19.105,54.979,19.105,51.553z"/>
	<path fill="#BE1E2D" d="M57.718,24.613c0,1.416-3.008,2.567-6.722,2.567H12.542c-3.714,0-6.726-1.151-6.726-2.567V12.397
		c0-1.419,3.012-2.567,6.726-2.567h38.455c3.714,0,6.722,1.148,6.722,2.567V24.613z"/>
	<path fill="#25333A" d="M30.315,52.497v-15.65c-2.857,2.235-4.779,3.354-5.768,3.354c-0.473,0-0.892-0.193-1.259-0.576
		c-0.363-0.384-0.545-0.827-0.545-1.334c0-0.584,0.178-1.014,0.538-1.291c0.359-0.271,0.995-0.626,1.906-1.067
		c1.361-0.649,2.448-1.338,3.262-2.058c0.816-0.724,1.537-1.535,2.167-2.425c0.631-0.896,1.038-1.45,1.23-1.655
		c0.189-0.208,0.552-0.306,1.078-0.306c0.6,0,1.076,0.233,1.438,0.7c0.356,0.472,0.539,1.118,0.539,1.945v19.691
		c0,2.304-0.771,3.461-2.312,3.461c-0.686,0-1.234-0.241-1.651-0.705C30.52,54.108,30.315,53.412,30.315,52.497z"/>
	<path fill="#D0D2D3" d="M22.516,12.32c0,2.158-1.717,3.902-3.826,3.902l0,0c-2.115,0-3.826-1.744-3.826-3.902V4.517
		c0-2.157,1.711-3.905,3.826-3.905l0,0c2.109,0,3.826,1.748,3.826,3.905V12.32z"/>
	<path fill="#D0D2D3" d="M48.54,12.32c0,2.158-1.712,3.902-3.827,3.902l0,0c-2.11,0-3.825-1.744-3.825-3.902V4.517
		c0-2.157,1.715-3.905,3.825-3.905l0,0c2.115,0,3.827,1.748,3.827,3.905V12.32z"/>
</g>
<sodipodi:namedview  id="namedview3026" inkscape:window-width="640" inkscape:window-height="480" inkscape:current-layer="Layer_1" inkscape:window-x="595" inkscape:pageshadow="2" inkscape:window-y="313" inkscape:pageopacity="0" inkscape:window-maximized="0" showgrid="false" borderopacity="1" objecttolerance="10" bordercolor="#666666" inkscape:zoom="3.6875" guidetolerance="10" inkscape:cy="32" inkscape:cx="32" pagecolor="#ffffff" gridtolerance="10">
	</sodipodi:namedview>
</svg>
